X: 4009
T: Blackwater, The
R: polka
M: 2/4
K: Amajor
E>F AB|ce c2|BA cB|BA FA|
E>F AB|ce c2|BA cB|1 A2 A z:|2 AB ce||
|:a2 f2|ec e2|A>B cB|BA FA|
E>F AB|ce c2|BA cB|1 AB ce:|2 A2 AF||

